X: 8726
T: Cruel Is The Snow That Sweeps Glencoe
R: waltz
M: 3/4
K: Gmajor
"G" B3 A G2|"G" D4 D2|"C" E2 C2 E2|"G" B,-D3 GA|
"G" B3 A G2|"G" D4 G2|"D" F2 A4-|"D" A4 z2|
"G" B3 A G2|"G" D4 D2|"C"E2 D2 C2|"G" B,-D3 GF|
"C" E2 C2 G2|"D" F2 G2 A2|"G"A2-G4-|G4 D2|
"G" G2 B2 G2|"D7" A2 c2 A2|"G" B2 d2 B2|"G" G6|
"D" A2 c2 A2|"D" F4 F2|"G" G2 B2 G2|"D" D4 D2|
"G" G2 B2 G2|"D7" A2 c2 A2|"G" B2 d2 B2|"G" G4 G2|
"C" E2 F2 G2|"D7" F2 G2 A2|"G" A2 G4-|1 G4 D2:|2 G4 D2||

